X:117
T:Sullivan's Polka
B:Terry "Cuz" Teahan "Sliabh Luachra on Parade" 1980
Z:Patrick Cavanagh
M:2/4
L:1/8
R:Polka
K:G
N:an attempt to reconstruct from missing notation
e | fa df | e/f/e/d/ BA | B/c/B/A/ GE | B/c/B/A/ GE | 
fa df | e/f/e/d/ BA | B/c/B/A/ GB/4c/4d/4 | g2 g :| 
d | B/c/B/A/ GB/c/ | d/e/f/g/ a2 | AA FA | d/f/e/d/ BA | 
| B/c/B/A/ G/A/B/c/ | de/f/ ge | AA B/c/B/A/ | G2 G :|| 

